modules/framework7-icons/icons/timer.svg

<?xml version="1.0" encoding="UTF-8"?>
<svg width="50px" height="50px" viewBox="0 0 50 50" version="1.1" xmlns="http://www.w3.org/2000/svg" xmlns:xlink="http://www.w3.org/1999/xlink">
    <!-- Generator: Sketch 40.1 (33804) - http://www.bohemiancoding.com/sketch -->
    <title>timer</title>
    <desc>Created with Sketch.</desc>
    <defs></defs>
    <g id="Page-1" stroke="none" stroke-width="1" fill="none" fill-rule="evenodd">
        <g id="timer" fill="#000000">
            <path d="M25.1999512,0.00078293406 C38.9150186,0.108222136 50,11.259593 50,25 C50,38.8071187 38.8071187,50 25,50 C11.1928813,50 0,38.8071187 0,25 C0,18.2607264 2.66662508,12.1442764 7.00229294,7.64823232 C7.12617378,7.51976913 7.25141721,7.39262883 7.37799995,7.26683467 L7.37799123,7.2668259 L8.78853431,8.6847184 C8.71350714,8.75927113 8.63899132,8.83433788 8.56499259,8.9099129 C4.50374017,13.0576768 2,18.7364485 2,25 C2,37.7025492 12.2974508,48 25,48 C37.7025492,48 48,37.7025492 48,25 C48,12.3641679 37.810435,2.10823617 25.1999512,2.00085106 L25.1999512,13 L23.1999512,13 L23.1999512,0 L25.1999512,0 L25.1999512,0.00078293406 Z" id="Combined-Shape"></path>
            <path d="M14.2322681,14.1309924 L28.2410853,24.2303363 C28.2410853,24.2303363 28.9140266,25.5648748 27.4570298,27.1728593 C26.0000331,28.7808437 24.1147621,28.2586525 24.1147621,28.2586525 L14.2322681,14.1309924 Z" id="Triangle-2"></path>
        </g>
    </g>
</svg>

<svg width="50" height="50" viewBox="0 0 50 50" xmlns="http://www.w3.org/2000/svg"><g fill="#000" fill-rule="evenodd"><path d="M25.2 0C38.915.109 50 11.26 50 25c0 13.807-11.193 25-25 25S0 38.807 0 25A24.917 24.917 0 0 1 7.378 7.267l1.41 1.418-.223.225A22.925 22.925 0 0 0 2 25c0 12.703 10.297 23 23 23s23-10.297 23-23C48 12.364 37.81 2.108 25.2 2v11h-2V0h2z"/><path d="M14.232 14.131l14.01 10.1s.672 1.334-.785 2.942-3.342 1.086-3.342 1.086L14.232 14.13z"/></g></svg>
